neru-dark-classic/22x22/emotes/face-devilish-symbolic.svg

<svg xmlns="http://www.w3.org/2000/svg" width="16" height="16" version="1.1">
 <path style="fill:#d3dae3" d="M 1,1 1.8965,4.5879 A 7,7 0 0 0 1,8 7,7 0 0 0 8,15 7,7 0 0 0 15,8 7,7 0 0 0 14.104,4.582 L 15,1 12.193,2.4043 A 7,7 0 0 0 8,1 7,7 0 0 0 3.8086,2.4043 Z M 2.8809,5.4297 C 2.9209,5.4197 2.9707,5.4297 2.9707,5.4297 L 6.6895,5.9609 C 7.0195,6.2509 6.94,6.71 6.75,7 H 5 C 5.55,7 6,7.45 6,8 6,8.55 5.55,9 5,9 4.45,9 4,8.55 4,8 4,7.45 4.45,7 5,7 H 2.8809 C 2.8809,7 2.4007,6.5593 2.4707,6.0293 2.5207,5.6293 2.7509,5.4797 2.8809,5.4297 Z M 13.029,5.4297 C 13.029,5.4297 13.469,5.4993 13.529,6.0293 13.599,6.5593 13.131,7 13.131,7 H 11 C 11.55,7 12,7.45 12,8 12,8.55 11.55,9 11,9 10.45,9 10,8.55 10,8 10,7.45 10.45,7 11,7 H 9.25 C 9.06,6.71 8.9805,6.2509 9.3105,5.9609 Z M 5.1699,10.83 C 5.9199,11.58 6.94,12 8,12 9.06,12 10.08,11.58 10.83,10.83 L 11.529,11.529 C 10.599,12.469 9.33,13 8,13 6.67,13 5.4007,12.469 4.4707,11.529 Z"/>
</svg>

<svg xmlns="http://www.w3.org/2000/svg" width="16" height="16"><path d="M1 1l.897 3.588A7 7 0 0 0 1 8a7 7 0 0 0 7 7 7 7 0 0 0 7-7 7 7 0 0 0-.896-3.418L15 1l-2.807 1.404A7 7 0 0 0 8 1a7 7 0 0 0-4.191 1.404zm1.88 4.43c.04-.01.09 0 .09 0l3.72.53c.33.29.25.75.06 1.04H5c.55 0 1 .45 1 1s-.45 1-1 1-1-.45-1-1 .45-1 1-1H2.88s-.48-.44-.41-.97c.05-.4.28-.55.41-.6zm10.149 0s.44.07.5.6c.07.53-.398.97-.398.97H11c.55 0 1 .45 1 1s-.45 1-1 1-1-.45-1-1 .45-1 1-1H9.25c-.19-.29-.27-.75.06-1.04zm-7.86 5.4a4.004 4.004 0 0 0 5.661 0l.699.699A4.961 4.961 0 0 1 8 13c-1.33 0-2.6-.531-3.53-1.471z" fill="#d3dae3"/></svg>
